public/images/iconShop.svg

<svg fill="none" height="16" viewBox="0 0 16 16" width="16" xmlns="http://www.w3.org/2000/svg" xmlns:xlink="http://www.w3.org/1999/xlink"><clipPath id="a"><path d="m0 0h16v16h-16z"/></clipPath><g style="clip-path:url(#a);stroke:#000;stroke-opacity:.6;stroke-width:1.33333;stroke-linecap:round;stroke-linejoin:round"><path d="m10 14v-3.3333c0-.1768-.07024-.3464-.19526-.4714-.12503-.1251-.2946-.1953-.47141-.1953h-2.66666c-.17681 0-.34638.0702-.47141.1953-.12502.125-.19526.2946-.19526.4714v3.3333"/><path d="m11.8491 6.8735c-.1389-.13305-.3239-.20731-.5163-.20731s-.3774.07426-.5163.20731c-.31.29567-.722.46063-1.15036.46063-.4284 0-.84034-.16496-1.15033-.46063-.13895-.13285-.32377-.20699-.516-.20699-.19224 0-.37706.07414-.51601.20699-.31002.29587-.72211.46095-1.15066.46095-.42856 0-.84064-.16508-1.15067-.46095-.13897-.13305-.32394-.20731-.51633-.20731s-.37736.07426-.51633.20731c-.29944.28574-.69449.44984-1.10825.46036-.41377.01052-.81664-.13329-1.13022-.40344-.31357-.27016-.5154-.64733-.56621-1.0581-.05081-.41076.05304-.82574.29134-1.16416l1.926-2.78933c.12221-.18033.28673-.32796.47919-.43.19245-.10204.40698-.15537.62481-.15533h6.66663c.2172-.00009.4312.05289.6232.15432.1921.10143.3564.24825.4788.42768l1.93 2.79466c.2384.33869.3421.75398.291 1.16496s-.2534.78821-.5675 1.05817-.7174.41332-1.1314.40215c-.414-.01118-.809-.17609-1.1081-.46261"/><path d="m2.6665 7.2998v5.3667c0 .3536.14048.6927.39053.9428.25005.25.58919.3905.94281.3905h7.99996c.3537 0 .6928-.1405.9428-.3905.2501-.2501.3906-.5892.3906-.9428v-5.3667"/></g></svg>

<svg width="16" height="16" viewBox="0 0 16 16" fill="none" xmlns="http://www.w3.org/2000/svg">
<g clip-path="url(#clip0_134_13651)">
<path d="M10 14V10.6667C10 10.4899 9.92976 10.3203 9.80474 10.1953C9.67971 10.0702 9.51014 10 9.33333 10H6.66667C6.48986 10 6.32029 10.0702 6.19526 10.1953C6.07024 10.3203 6 10.4899 6 10.6667V14" stroke="black" stroke-opacity="0.6" stroke-width="1.33333" stroke-linecap="round" stroke-linejoin="round"/>
<path d="M11.8491 6.8735C11.7102 6.74045 11.5252 6.66619 11.3328 6.66619C11.1404 6.66619 10.9554 6.74045 10.8165 6.8735C10.5065 7.16917 10.0945 7.33413 9.66614 7.33413C9.23774 7.33413 8.8258 7.16917 8.51581 6.8735C8.37686 6.74065 8.19204 6.66651 7.99981 6.66651C7.80757 6.66651 7.62275 6.74065 7.4838 6.8735C7.17378 7.16937 6.76169 7.33445 6.33314 7.33445C5.90458 7.33445 5.4925 7.16937 5.18247 6.8735C5.0435 6.74045 4.85853 6.66619 4.66614 6.66619C4.47375 6.66619 4.28878 6.74045 4.14981 6.8735C3.85037 7.15924 3.45532 7.32334 3.04156 7.33386C2.62779 7.34438 2.22492 7.20057 1.91134 6.93042C1.59777 6.66026 1.39594 6.28309 1.34513 5.87232C1.29432 5.46156 1.39817 5.04658 1.63647 4.70816L3.56247 1.91883C3.68468 1.7385 3.8492 1.59087 4.04166 1.48883C4.23411 1.38679 4.44864 1.33346 4.66647 1.3335H11.3331C11.5503 1.33341 11.7643 1.38639 11.9563 1.48782C12.1484 1.58925 12.3127 1.73607 12.4351 1.9155L14.3651 4.71016C14.6035 5.04885 14.7072 5.46414 14.6561 5.87512C14.605 6.2861 14.4027 6.66333 14.0886 6.93329C13.7745 7.20325 13.3712 7.34661 12.9572 7.33544C12.5432 7.32426 12.1482 7.15935 11.8491 6.87283" stroke="black" stroke-opacity="0.6" stroke-width="1.33333" stroke-linecap="round" stroke-linejoin="round"/>
<path d="M2.6665 7.2998V12.6665C2.6665 13.0201 2.80698 13.3592 3.05703 13.6093C3.30708 13.8593 3.64622 13.9998 3.99984 13.9998H11.9998C12.3535 13.9998 12.6926 13.8593 12.9426 13.6093C13.1927 13.3592 13.3332 13.0201 13.3332 12.6665V7.2998" stroke="black" stroke-opacity="0.6" stroke-width="1.33333" stroke-linecap="round" stroke-linejoin="round"/>
</g>
<defs>
<clipPath id="clip0_134_13651">
<rect width="16" height="16" fill="white"/>
</clipPath>
</defs>
</svg>
